public/flags/CH.svg

<svg fill="none" height="53" viewBox="0 0 61 53" width="61" xmlns="http://www.w3.org/2000/svg" xmlns:xlink="http://www.w3.org/1999/xlink"><mask id="a" height="43" maskUnits="userSpaceOnUse" width="59" x="1" y="3"><rect fill="#fff" height="42.5" rx="4.24286" width="59" x="1" y="3"/></mask><rect fill="#fff" height="42.5" rx="4.24286" width="59" x="1" y="3"/><g mask="url(#a)"><path d="m1 3h59v42.5h-59z" fill="#f00"/><path clip-rule="evenodd" d="m26.2857 28.5h-7.7214c-.3905 0-.7071-.3166-.7071-.7071v-7.0858c0-.3905.3166-.7071.7071-.7071h7.7214v-7.7929c0-.3905.3166-.7071.7072-.7071h7.0143c.3905 0 .7071.3166.7071.7071v7.7929h7.7214c.3906 0 .7072.3166.7072.7071v7.0858c0 .3905-.3166.7071-.7072.7071h-7.7214v7.7929c0 .3905-.3166.7071-.7071.7071h-7.0143c-.3906 0-.7072-.3166-.7072-.7071z" fill="#fff" fill-rule="evenodd"/></g></svg>

<svg width="61" height="53" viewBox="0 0 61 53" fill="none" xmlns="http://www.w3.org/2000/svg">
<rect x="1" y="3" width="59" height="42.5" rx="4.24286" fill="white"/>
<mask id="mask0" mask-type="alpha" maskUnits="userSpaceOnUse" x="1" y="3" width="59" height="43">
<rect x="1" y="3" width="59" height="42.5" rx="4.24286" fill="white"/>
</mask>
<g mask="url(#mask0)">
<rect x="1" y="3" width="59" height="42.5" fill="#FF0000"/>
<path fill-rule="evenodd" clip-rule="evenodd" d="M26.2857 28.5H18.5643C18.1738 28.5 17.8572 28.1834 17.8572 27.7929V20.7071C17.8572 20.3166 18.1738 20 18.5643 20H26.2857V12.2071C26.2857 11.8166 26.6023 11.5 26.9929 11.5H34.0072C34.3977 11.5 34.7143 11.8166 34.7143 12.2071V20H42.4357C42.8263 20 43.1429 20.3166 43.1429 20.7071V27.7929C43.1429 28.1834 42.8263 28.5 42.4357 28.5H34.7143V36.2929C34.7143 36.6834 34.3977 37 34.0072 37H26.9929C26.6023 37 26.2857 36.6834 26.2857 36.2929V28.5Z" fill="white"/>
</g>
</svg>
